X: 88
T: Sailor's Wife
R: jig
M: 6/8
K: Dm
E | "Dm"DEF E2D | d2e f2g | agf edc | "C"A/=B/cA GEC|
 "Dm"DEF E2D | d2e f2g | "Dm"afd "A"ge^c | "Dm"d3 d2 :|
|: e | "F"fga fga | fga agf | "C"ecg ecg | efg gfe |
 "F"fga agf | "C"efg gfe | "Dm"afd "A"ge^c | "Dm"d3 d2 :|
